SF_Symbols/rays.svg

<?xml version="1.0" encoding="UTF-8"?>
<svg xmlns="http://www.w3.org/2000/svg" xmlns:xlink="http://www.w3.org/1999/xlink" width="24" height="24" viewBox="0 0 24 24" version="1.1">
<g id="surface1">
<path style=" stroke:none;fill-rule:nonzero;fill:rgb(100%,100%,100%);fill-opacity:1;" d="M 12.90625 2.042969 C 12.90625 1.792969 12.816406 1.578125 12.636719 1.40625 C 12.453125 1.226562 12.238281 1.136719 11.988281 1.136719 C 11.746094 1.136719 11.535156 1.226562 11.355469 1.40625 C 11.171875 1.578125 11.082031 1.792969 11.082031 2.042969 L 11.082031 5.25 C 11.082031 5.5 11.171875 5.714844 11.355469 5.894531 C 11.535156 6.078125 11.746094 6.167969 11.988281 6.167969 C 12.238281 6.167969 12.453125 6.078125 12.636719 5.894531 C 12.816406 5.714844 12.90625 5.5 12.90625 5.25 Z M 16.40625 6.75 C 16.234375 6.921875 16.144531 7.140625 16.144531 7.394531 C 16.144531 7.644531 16.234375 7.859375 16.40625 8.03125 C 16.578125 8.203125 16.792969 8.292969 17.042969 8.292969 C 17.296875 8.292969 17.515625 8.203125 17.699219 8.03125 L 19.957031 5.761719 C 20.132812 5.585938 20.21875 5.371094 20.21875 5.113281 C 20.21875 4.859375 20.132812 4.640625 19.957031 4.46875 C 19.785156 4.296875 19.574219 4.207031 19.324219 4.207031 C 19.074219 4.207031 18.859375 4.296875 18.6875 4.46875 Z M 22.386719 13.34375 C 22.636719 13.34375 22.851562 13.257812 23.03125 13.082031 C 23.210938 12.902344 23.300781 12.6875 23.300781 12.4375 C 23.300781 12.195312 23.210938 11.984375 23.03125 11.800781 C 22.851562 11.621094 22.636719 11.53125 22.386719 11.53125 L 19.175781 11.53125 C 18.933594 11.53125 18.722656 11.621094 18.542969 11.800781 C 18.359375 11.984375 18.269531 12.195312 18.269531 12.4375 C 18.269531 12.6875 18.359375 12.902344 18.542969 13.082031 C 18.722656 13.257812 18.933594 13.34375 19.175781 13.34375 Z M 17.699219 16.84375 C 17.515625 16.671875 17.296875 16.582031 17.042969 16.582031 C 16.792969 16.582031 16.578125 16.671875 16.40625 16.84375 C 16.234375 17.015625 16.144531 17.234375 16.144531 17.488281 C 16.144531 17.738281 16.234375 17.953125 16.40625 18.125 L 18.6875 20.40625 C 18.859375 20.578125 19.074219 20.664062 19.324219 20.65625 C 19.574219 20.65625 19.785156 20.574219 19.957031 20.40625 C 20.132812 20.234375 20.21875 20.015625 20.21875 19.761719 C 20.21875 19.503906 20.132812 19.289062 19.957031 19.113281 Z M 12.90625 19.625 C 12.90625 19.375 12.816406 19.160156 12.636719 18.980469 C 12.453125 18.796875 12.238281 18.707031 11.988281 18.707031 C 11.746094 18.707031 11.535156 18.796875 11.355469 18.980469 C 11.171875 19.160156 11.082031 19.375 11.082031 19.625 L 11.082031 22.832031 C 11.082031 23.082031 11.171875 23.296875 11.355469 23.46875 C 11.535156 23.648438 11.746094 23.738281 11.988281 23.738281 C 12.238281 23.738281 12.453125 23.648438 12.636719 23.46875 C 12.816406 23.296875 12.90625 23.082031 12.90625 22.832031 Z M 4.019531 19.113281 C 3.847656 19.289062 3.761719 19.503906 3.761719 19.761719 C 3.761719 20.011719 3.84375 20.222656 4.011719 20.394531 C 4.183594 20.570312 4.398438 20.65625 4.65625 20.65625 C 4.914062 20.664062 5.128906 20.578125 5.300781 20.40625 L 7.574219 18.136719 C 7.746094 17.96875 7.832031 17.761719 7.832031 17.511719 C 7.832031 17.253906 7.746094 17.039062 7.574219 16.863281 C 7.40625 16.691406 7.195312 16.605469 6.9375 16.605469 C 6.679688 16.605469 6.464844 16.691406 6.292969 16.863281 Z M 1.59375 11.53125 C 1.351562 11.53125 1.140625 11.621094 0.957031 11.800781 C 0.777344 11.984375 0.6875 12.195312 0.6875 12.4375 C 0.6875 12.6875 0.777344 12.902344 0.957031 13.082031 C 1.140625 13.257812 1.351562 13.34375 1.59375 13.34375 L 4.824219 13.34375 C 5.066406 13.34375 5.277344 13.257812 5.457031 13.082031 C 5.640625 12.902344 5.730469 12.6875 5.730469 12.4375 C 5.730469 12.195312 5.640625 11.984375 5.457031 11.800781 C 5.277344 11.621094 5.066406 11.53125 4.824219 11.53125 Z M 6.1875 7.925781 C 6.359375 8.101562 6.574219 8.1875 6.824219 8.1875 C 7.078125 8.1875 7.296875 8.101562 7.46875 7.925781 C 7.640625 7.753906 7.730469 7.542969 7.730469 7.292969 C 7.730469 7.035156 7.640625 6.820312 7.46875 6.644531 L 5.207031 4.375 C 5.035156 4.203125 4.824219 4.113281 4.574219 4.113281 C 4.324219 4.109375 4.109375 4.191406 3.925781 4.363281 C 3.753906 4.539062 3.667969 4.753906 3.667969 5.011719 C 3.667969 5.261719 3.753906 5.472656 3.925781 5.644531 Z M 6.1875 7.925781 "/>
</g>
</svg>

<svg xmlns="http://www.w3.org/2000/svg" width="24" height="24"><path style="stroke:none;fill-rule:nonzero;fill:#fff;fill-opacity:1" d="M12.906 2.043a.85.85 0 0 0-.27-.637.888.888 0 0 0-.648-.27.862.862 0 0 0-.633.27.84.84 0 0 0-.273.637V5.25c0 .25.09.465.273.645.18.183.391.273.633.273.25 0 .465-.09.649-.273a.873.873 0 0 0 .27-.645Zm3.5 4.707a.888.888 0 0 0-.261.645c0 .25.09.464.261.636a.87.87 0 0 0 .637.262c.246.004.48-.09.656-.262l2.258-2.27a.88.88 0 0 0 .262-.648.866.866 0 0 0-.262-.644.855.855 0 0 0-.633-.262c-.25 0-.465.09-.637.262Zm5.98 6.594c.25 0 .466-.086.645-.262a.873.873 0 0 0 .27-.645.886.886 0 0 0-.27-.636.873.873 0 0 0-.644-.27h-3.211a.877.877 0 0 0-.633.27.868.868 0 0 0-.273.636c0 .25.09.465.273.645.18.176.39.262.633.262Zm-4.687 3.5a.914.914 0 0 0-.656-.262c-.25 0-.465.09-.637.262a.888.888 0 0 0-.261.644c0 .25.09.465.261.637l2.282 2.281a.83.83 0 0 0 .636.25c.25 0 .461-.082.633-.25a.866.866 0 0 0 .262-.644.88.88 0 0 0-.262-.649Zm-4.793 2.781a.873.873 0 0 0-.27-.645.88.88 0 0 0-.648-.273.86.86 0 0 0-.633.273.862.862 0 0 0-.273.645v3.207c0 .25.09.465.273.637.18.18.391.27.633.27.25 0 .465-.09.649-.27a.85.85 0 0 0 .27-.637Zm-8.886-.512a.893.893 0 0 0-.258.649c0 .25.082.46.25.633.168.175.402.27.644.261a.842.842 0 0 0 .645-.25l2.273-2.27a.855.855 0 0 0 .258-.624.877.877 0 0 0-.258-.649.851.851 0 0 0-.636-.258.869.869 0 0 0-.645.258Zm-2.426-7.582a.893.893 0 0 0-.637.27.886.886 0 0 0-.27.636c0 .25.09.465.27.645a.902.902 0 0 0 .637.262h3.23a.877.877 0 0 0 .633-.262.877.877 0 0 0 .273-.645.868.868 0 0 0-.273-.636.877.877 0 0 0-.633-.27Zm4.593-3.605a.87.87 0 0 0 .637.261.866.866 0 0 0 .645-.261.855.855 0 0 0 .261-.633.896.896 0 0 0-.261-.648l-2.262-2.27a.855.855 0 0 0-.633-.262.886.886 0 0 0-.648.25.877.877 0 0 0-.258.649c0 .25.086.46.258.633Zm0 0"/></svg>
